; generated by PrusaSlicer 2.7.4+MacOS-arm64 on 2024-06-13 at 21:10:52 UTC


;
;
; 

; external perimeters extrusion width = 0.68mm
; perimeters extrusion width = 0.68mm
; infill extrusion width = 0.68mm
; solid infill extrusion width = 0.68mm
; top infill extrusion width = 0.60mm
; first layer extrusion width = 0.65mm

M73 P0 R15
M73 Q0 S15
M201 X1000 Y1000 Z200 E5000 ; sets maximum accelerations, mm/sec^2
M203 X200 Y200 Z12 E120 ; sets maximum feedrates, mm / sec
M204 S1250 T1250 ; sets acceleration (S) and retract acceleration (R), mm/sec^2
M205 X8.00 Y8.00 Z0.40 E4.50 ; sets the jerk limits, mm/sec
M205 S0 T0 ; sets the minimum extruding and travel feed rate, mm/sec

; printing object Shape-Box id:1 copy 0
; stop printing object Shape-Box id:1 copy 0

;TYPE:Custom
M862.3 P "MK3S" ; printer model check
M862.1 P0.6 ; nozzle diameter check
M115 U3.12.2 ; tell printer latest fw version
G90 ; use absolute coordinates
M83 ; extruder relative mode
M104 S185; set extruder temp
M109 S185; wait for extruder temp
G28 W ; home all without mesh bed level
G80 ; mesh bed leveling

G1 Z0.2 F720
G1 Y-3 F1000 ; go outside print area
G92 E0
M104 S215; set extruder temp
M140 S60; set bed temp
M190 S60; wait for bed temp
M109 S215; wait for extruder temp
G1 X20 E9 F750 ; intro line
G1 X180 E12.5 F750 ; intro line

G92 E0
M221 S95
G21 ; set units to millimeters
G90 ; use absolute coordinates
M83 ; use relative distances for extrusion
M900 K0.04 ; Filament gcode LA 1.5
M900 K18 ; Filament gcode LA 1.0
M107
;LAYER_CHANGE
;Z:0.2
;HEIGHT:0.2
G1 E-.8 F2100
M73 P1 R15
M73 Q1 S15
G1 Z.6 F720
G1 X110.285 Y91.125 F10800
G1 Z.2 F720
G1 E.8 F1500
M204 S800
;TYPE:Skirt/Brim
;WIDTH:0.65
G1 F600
G1 X111.344 Y90.163 E.07222
G1 X112.5 Y89.893 E.05992
G1 X137.5 Y89.893 E1.26197
G1 X138.875 Y90.285 E.07217
G1 X139.837 Y91.344 E.07222
G1 X140.107 Y92.5 E.05992
M73 Q2 S15
G1 X140.107 Y117.5 E1.26197
M73 P2 R15
G1 X139.715 Y118.875 E.07217
G1 X138.656 Y119.837 E.07222
G1 X137.5 Y120.107 E.05992
G1 X112.5 Y120.107 E1.26197
G1 X111.125 Y119.715 E.07217
G1 X110.163 Y118.656 E.07222
G1 X109.893 Y117.5 E.05992
G1 X109.893 Y92.5 E1.26197
G1 X110.261 Y91.211 E.06767
M204 S1000
;WIPE_START
G1 F8640
G1 X110.285 Y91.125 E-.02062
G1 X111.344 Y90.163 E-.33035
G1 X112.5 Y89.893 E-.27411
G1 X113.258 Y89.893 E-.17492
;WIPE_END
G1 Z.6 F720
; printing object Shape-Box id:1 copy 0
G1 X136.368 Y116.368 F10800
G1 Z.2 F720
G1 E.8 F1500
M204 S800
;TYPE:Perimeter
;WIDTH:0.649999
G1 F600
G1 X113.632 Y116.368 E1.14769
G1 X113.632 Y93.632 E1.14769
M73 P3 R15
M73 Q3 S15
G1 X136.368 Y93.632 E1.14769
G1 X136.368 Y105 E.57384
G1 X136.368 Y116.278 E.5693
M204 S1000
G1 X136.975 Y116.975 F10800
M204 S800
;TYPE:External perimeter
G1 F600
G1 X113.025 Y116.975 E1.20897
G1 X113.025 Y93.025 E1.20897
M73 P4 R15
M73 Q4 S15
G1 X136.975 Y93.025 E1.20897
G1 X136.975 Y105 E.60448
M73 P4 R14
G1 X136.975 Y116.885 E.59994
M73 Q4 S14
M204 S1000
;WIPE_START
G1 F8640
G1 X136.975 Y116.975 E-.02078
G1 X133.6 Y116.975 E-.77922
;WIPE_END
G1 Z.6 F720
G1 X134.873 Y93.875 F10800
G1 Z.2 F720
M73 P5 R14
M73 Q5 S14
G1 E.8 F1500
M204 S800
;TYPE:Solid infill
;WIDTH:0.661593
G1 F600
G1 X135.852 Y94.853 E.07119
G1 X135.852 Y95.728 E.04501
G1 X134.272 Y94.148 E.11495
G1 X133.397 Y94.148 E.04501
G1 X135.852 Y96.603 E.1786
G1 X135.852 Y97.478 E.04501
G1 X132.522 Y94.148 E.24226
G1 X131.647 Y94.148 E.04501
G1 X135.852 Y98.353 E.30592
G1 X135.852 Y99.228 E.04501
G1 X130.772 Y94.148 E.36958
G1 X129.897 Y94.148 E.04501
G1 X135.852 Y100.103 E.43323
G1 X135.852 Y100.978 E.04501
G1 X129.022 Y94.148 E.49689
G1 X128.147 Y94.148 E.04501
G1 X135.852 Y101.853 E.56055
G1 X135.852 Y102.728 E.04501
G1 X127.272 Y94.148 E.62421
G1 X126.397 Y94.148 E.04501
G1 X135.852 Y103.603 E.68786
G1 X135.852 Y104.478 E.04501
G1 X125.522 Y94.148 E.75152
G1 X124.647 Y94.148 E.04501
M73 P6 R14
M73 Q6 S14
G1 X135.852 Y105.353 E.81518
G1 X135.852 Y106.228 E.04501
G1 X123.772 Y94.148 E.87883
G1 X122.897 Y94.148 E.04501
G1 X135.852 Y107.103 E.94249
G1 X135.852 Y107.978 E.04501
G1 X122.022 Y94.148 E1.00615
G1 X121.148 Y94.148 E.04496
G1 X135.852 Y108.852 E1.06973
G1 X135.852 Y109.727 E.04501
M73 P7 R14
M73 Q7 S14
G1 X120.273 Y94.148 E1.13339
G1 X119.398 Y94.148 E.04501
G1 X135.852 Y110.602 E1.19705
G1 X135.852 Y111.477 E.04501
G1 X118.523 Y94.148 E1.26071
G1 X117.648 Y94.148 E.04501
G1 X135.852 Y112.352 E1.32436
G1 X135.852 Y113.227 E.04501
M73 P8 R14
M73 Q8 S14
G1 X116.773 Y94.148 E1.38802
G1 X115.898 Y94.148 E.04501
G1 X135.852 Y114.102 E1.45168
G1 X135.852 Y114.977 E.04501
G1 X115.023 Y94.148 E1.51533
G1 X114.148 Y94.148 E.04501
M73 P9 R14
M73 Q9 S14
G1 X135.852 Y115.852 E1.57899
G1 X134.977 Y115.852 E.04501
G1 X114.148 Y95.023 E1.51533
G1 X114.148 Y95.898 E.04501
G1 X134.102 Y115.852 E1.45168
G1 X133.227 Y115.852 E.04501
M73 P10 R14
M73 Q10 S14
G1 X114.148 Y96.773 E1.38802
G1 X114.148 Y97.648 E.04501
G1 X132.352 Y115.852 E1.32436
G1 X131.477 Y115.852 E.04501
G1 X114.148 Y98.523 E1.26071
G1 X114.148 Y99.398 E.04501
M73 P10 R13
G1 X130.602 Y115.852 E1.19705
G1 X129.727 Y115.852 E.04501
M73 P11 R13
M73 Q11 S13
G1 X114.148 Y100.273 E1.13339
G1 X114.148 Y101.148 E.04501
G1 X128.852 Y115.852 E1.06973
G1 X127.977 Y115.852 E.04501
G1 X114.148 Y102.023 E1.00608
G1 X114.148 Y102.897 E.04496
G1 X127.103 Y115.852 E.94249
G1 X126.228 Y115.852 E.04501
M73 P12 R13
M73 Q12 S13
G1 X114.148 Y103.772 E.87883
G1 X114.148 Y104.647 E.04501
G1 X125.353 Y115.852 E.81518
G1 X124.478 Y115.852 E.04501
G1 X114.148 Y105.522 E.75152
G1 X114.148 Y106.397 E.04501
G1 X123.603 Y115.852 E.68786
G1 X122.728 Y115.852 E.04501
G1 X114.148 Y107.272 E.62421
G1 X114.148 Y108.147 E.04501
G1 X121.853 Y115.852 E.56055
G1 X120.978 Y115.852 E.04501
M73 P13 R13
M73 Q13 S13
G1 X114.148 Y109.022 E.49689
G1 X114.148 Y109.897 E.04501
G1 X120.103 Y115.852 E.43323
G1 X119.228 Y115.852 E.04501
G1 X114.148 Y110.772 E.36958
G1 X114.148 Y111.647 E.04501
G1 X118.353 Y115.852 E.30592
G1 X117.478 Y115.852 E.04501
G1 X114.148 Y112.522 E.24226
G1 X114.148 Y113.397 E.04501
G1 X116.603 Y115.852 E.1786
G1 X115.728 Y115.852 E.04501
G1 X114.148 Y114.272 E.11495
G1 X114.148 Y115.147 E.04501
G1 X115.127 Y116.125 E.07119
M204 S1000
M106 S84.15
;LAYER_CHANGE
;Z:0.6
;HEIGHT:0.4
;BEFORE_LAYER_CHANGE
G92 E0.0
;0.6


;WIPE_START
G1 F8640
G1 X114.148 Y115.147 E-.31953
G1 X114.148 Y114.272 E-.20204
G1 X115.001 Y115.125 E-.27843
;WIPE_END
G1 Z.6 F720
;AFTER_LAYER_CHANGE
;0.6
M140 S55 ; set bed temperature
; stop printing object Shape-Box id:1 copy 0
G1 Z1
G1 X115.001 Y120.107 F10800
G1 Z.6 F720
G1 E.8 F1500
;TYPE:Skirt/Brim
;WIDTH:0.65
G1 F3000
G1 X112.5 Y120.107 E.23464
G1 X111.125 Y119.715 E.13414
G1 X110.163 Y118.656 E.13423
G1 X109.893 Y117.5 E.11137
G1 X109.893 Y92.5 E2.3455
G1 X110.285 Y91.125 E.13414
G1 X111.344 Y90.163 E.13423
G1 X112.5 Y89.893 E.11137
G1 X137.5 Y89.893 E2.3455
G1 X138.875 Y90.285 E.13414
G1 X139.837 Y91.344 E.13423
G1 X140.107 Y92.5 E.11137
G1 X140.107 Y117.5 E2.3455
G1 X139.715 Y118.875 E.13414
G1 X138.656 Y119.837 E.13423
G1 X137.5 Y120.107 E.11137
G1 X115.091 Y120.107 E2.10241
;WIPE_START
G1 F8640
G1 X115.001 Y120.107 E-.02078
G1 X112.5 Y120.107 E-.57749
G1 X111.66 Y119.867 E-.20173
;WIPE_END
G1 Z1 F720
; printing object Shape-Box id:1 copy 0
G1 X136.566 Y116.566 F10800
G1 Z.6 F720
G1 E.8 F1500
M204 S800
;TYPE:Perimeter
;WIDTH:0.68
G1 F2571.374
G1 X113.434 Y116.566 E2.28565
G1 F2700
M73 P14 R13
M73 Q14 S13
G1 X113.434 Y93.434 E2.28565
G1 X136.566 Y93.434 E2.28565
G1 F2571.374
G1 X136.566 Y105 E1.14283
G1 X136.566 Y116.476 E1.13393
M204 S1000
G1 X136.566 Y116.476 F10800
G1 X137.16 Y117.16
M204 S800
;TYPE:External perimeter
G1 F2022.783
G1 X112.84 Y117.16 E2.40304
G1 F2033.931
G1 X112.84 Y116.14 E.10079
G1 F2100
G1 X112.84 Y92.84 E2.30225
G1 X136.14 Y92.84 E2.30225
G1 F2033.931
G1 X137.16 Y92.84 E.10079
G1 F2022.783
G1 X137.16 Y105 E1.20152
G1 X137.16 Y117.07 E1.19263
M204 S1000
;WIPE_START
G1 F8640
G1 X137.16 Y117.16 E-.02078
G1 X133.785 Y117.16 E-.77922
;WIPE_END
G1 Z1 F720
G1 X114.1 Y93.987 F10800
G1 Z.6 F720
G1 E.8 F1500
;TYPE:Solid infill
;WIDTH:0.824161
G1 F3047.459
G1 X114.035 Y93.922 E.01129
G1 X113.946 Y93.946 E.01132
G1 X113.922 Y94.035 E.01132
G1 X113.987 Y94.1 E.01129
G1 X114.077 Y94.077 E.01141
;WIDTH:0.68
G1 F3786.865
G1 X113.939 Y95.026 E.09476
G1 X115.026 Y93.939 E.15189
G1 X115.866 Y93.939 E.083
G1 X113.939 Y95.866 E.26927
G1 X113.939 Y96.706 E.083
G1 X116.706 Y93.939 E.38665
G1 X117.546 Y93.939 E.083
G1 X113.939 Y97.546 E.50403
G1 X113.939 Y98.387 E.0831
G1 X118.387 Y93.939 E.62155
G1 X119.227 Y93.939 E.083
G1 X113.939 Y99.227 E.73893
G1 X113.939 Y100.067 E.083
G1 X120.067 Y93.939 E.85631
G1 X120.907 Y93.939 E.083
G1 X113.939 Y100.907 E.97369
G1 X113.939 Y101.748 E.0831
G1 X121.748 Y93.939 E1.09121
G1 X122.588 Y93.939 E.083
G1 X113.939 Y102.588 E1.20859
G1 X113.939 Y103.428 E.083
G1 X123.428 Y93.939 E1.32597
G1 X124.269 Y93.939 E.0831
G1 X113.939 Y104.269 E1.44348
G1 X113.939 Y105.109 E.083
G1 X125.109 Y93.939 E1.56086
G1 X125.949 Y93.939 E.083
G1 X113.939 Y105.949 E1.67824
G1 X113.939 Y106.789 E.083
G1 X126.789 Y93.939 E1.79562
G1 X127.63 Y93.939 E.0831
G1 X113.939 Y107.63 E1.91314
G1 X113.939 Y108.47 E.083
M73 P15 R13
M73 Q15 S13
G1 X128.47 Y93.939 E2.03052
G1 X129.31 Y93.939 E.083
G1 X113.939 Y109.31 E2.1479
G1 X113.939 Y110.15 E.083
G1 X130.15 Y93.939 E2.26528
G1 X130.991 Y93.939 E.0831
G1 X113.939 Y110.991 E2.3828
G1 X113.939 Y111.831 E.083
G1 X131.831 Y93.939 E2.50018
G1 X132.671 Y93.939 E.083
G1 X113.939 Y112.671 E2.61756
G1 X113.939 Y113.511 E.083
G1 X133.511 Y93.939 E2.73493
G1 X134.352 Y93.939 E.0831
G1 X113.939 Y114.352 E2.85245
G1 X113.939 Y115.192 E.083
G1 X135.192 Y93.939 E2.96983
G1 X136.032 Y93.939 E.083
G1 X113.939 Y116.032 E3.08721
G1 X114.751 Y116.061 E.08028
G1 X136.061 Y94.751 E2.9778
G1 X136.061 Y95.591 E.083
G1 X115.591 Y116.061 E2.86042
G1 X116.431 Y116.061 E.083
G1 X136.061 Y96.431 E2.74304
G1 X136.061 Y97.272 E.0831
G1 X117.272 Y116.061 E2.62552
G1 X118.112 Y116.061 E.083
G1 X136.061 Y98.112 E2.50814
G1 X136.061 Y98.952 E.083
G1 X118.952 Y116.061 E2.39076
G1 X119.793 Y116.061 E.0831
G1 X136.061 Y99.793 E2.27324
G1 X136.061 Y100.633 E.083
G1 X120.633 Y116.061 E2.15586
G1 X121.473 Y116.061 E.083
G1 X136.061 Y101.473 E2.03848
G1 X136.061 Y102.313 E.083
M73 P16 R13
G1 X122.313 Y116.061 E1.92111
M73 Q16 S13
G1 X123.154 Y116.061 E.0831
G1 X136.061 Y103.154 E1.80359
G1 X136.061 Y103.994 E.083
G1 X123.994 Y116.061 E1.68621
G1 X124.834 Y116.061 E.083
G1 X136.061 Y104.834 E1.56883
G1 X136.061 Y105.674 E.083
G1 X125.674 Y116.061 E1.45145
G1 X126.515 Y116.061 E.0831
G1 X136.061 Y106.515 E1.33393
G1 X136.061 Y107.355 E.083
G1 X127.355 Y116.061 E1.21655
G1 X128.195 Y116.061 E.083
G1 X136.061 Y108.195 E1.09917
G1 X136.061 Y109.035 E.083
G1 X129.035 Y116.061 E.98179
G1 X129.876 Y116.061 E.0831
G1 X136.061 Y109.876 E.86427
G1 X136.061 Y110.716 E.083
G1 X130.716 Y116.061 E.74689
G1 X131.556 Y116.061 E.083
G1 X136.061 Y111.556 E.62952
G1 X136.061 Y112.397 E.0831
G1 X132.397 Y116.061 E.512
G1 X133.237 Y116.061 E.083
G1 X136.061 Y113.237 E.39462
G1 X136.061 Y114.077 E.083
G1 X134.077 Y116.061 E.27724
G1 X134.917 Y116.061 E.083
G1 X136.061 Y114.917 E.15986
G1 X136.065 Y115.947 E.10177
;WIDTH:0.857599
G1 F2915.422
G1 X135.997 Y115.879 E.01234
G1 X135.904 Y115.904 E.01236
G1 X135.879 Y115.997 E.01236
G1 X135.947 Y116.065 E.01234
G1 X136.04 Y116.04 E.01236
M106 S170.85
;LAYER_CHANGE
;Z:1
;HEIGHT:0.4
;BEFORE_LAYER_CHANGE
G92 E0.0
;1


;WIPE_START
G1 F8640
G1 X135.947 Y116.065 E-.02224
G1 X135.879 Y115.997 E-.02221
G1 X135.904 Y115.904 E-.02224
G1 X135.997 Y115.879 E-.02224
G1 X136.065 Y115.947 E-.02221
G1 X136.061 Y114.917 E-.23783
G1 X134.917 Y116.061 E-.37357
G1 X134.582 Y116.061 E-.07746
;WIPE_END
G1 Z1 F720
;AFTER_LAYER_CHANGE
;1
; stop printing object Shape-Box id:1 copy 0
G1 Z1.4
G1 X134.582 Y120.107 F10800
G1 Z1 F720
G1 E.8 F1500
;TYPE:Skirt/Brim
;WIDTH:0.65
G1 F3000
G1 X112.5 Y120.107 E2.07173
G1 X111.125 Y119.715 E.13414
G1 X110.163 Y118.656 E.13423
G1 X109.893 Y117.5 E.11137
G1 X109.893 Y92.5 E2.3455
G1 X110.285 Y91.125 E.13414
G1 X111.344 Y90.163 E.13423
G1 X112.5 Y89.893 E.11137
G1 X137.5 Y89.893 E2.3455
G1 X138.875 Y90.285 E.13414
G1 X139.837 Y91.344 E.13423
G1 X140.107 Y92.5 E.11137
G1 X140.107 Y117.5 E2.3455
G1 X139.715 Y118.875 E.13414
G1 X138.656 Y119.837 E.13423
G1 X137.5 Y120.107 E.11137
G1 X134.672 Y120.107 E.26532
;WIPE_START
G1 F8640
G1 X134.582 Y120.107 E-.02078
G1 X131.207 Y120.107 E-.77922
;WIPE_END
G1 Z1.4 F720
; printing object Shape-Box id:1 copy 0
G1 X136.566 Y116.566 F10800
G1 Z1 F720
G1 E.8 F1500
M204 S800
;TYPE:Perimeter
;WIDTH:0.68
G1 F2700
G1 X113.434 Y116.566 E2.28565
G1 X113.434 Y93.434 E2.28565
G1 X136.566 Y93.434 E2.28565
G1 X136.566 Y105 E1.14283
G1 X136.566 Y116.476 E1.13393
M73 P17 R13
M73 Q17 S13
M204 S1000
G1 X136.566 Y116.476 F10800
G1 X137.16 Y117.16
M204 S800
;TYPE:External perimeter
G1 F2099.997
G1 X112.84 Y117.16 E2.40304
G1 X112.84 Y92.84 E2.40304
G1 X137.16 Y92.84 E2.40304
G1 X137.16 Y105 E1.20152
M73 P17 R12
G1 X137.16 Y117.07 E1.19263
M204 S1000
;WIPE_START
G1 F8640
G1 X137.16 Y117.16 E-.02078
G1 X133.785 Y117.16 E-.77922
;WIPE_END
G1 Z1.4 F720
G1 X113.987 Y115.9 F10800
G1 Z1 F720
G1 E.8 F1500
;TYPE:Solid infill
;WIDTH:0.824161
G1 F3047.459
G1 X113.922 Y115.965 E.01129
G1 X113.946 Y116.054 E.01132
G1 X114.035 Y116.078 E.01132
G1 X114.1 Y116.013 E.01129
G1 X114.077 Y115.923 E.01141
;WIDTH:0.68
G1 F3786.865
G1 X115.026 Y116.061 E.09476
G1 X113.939 Y114.974 E.15189
G1 X113.939 Y114.134 E.083
G1 X115.866 Y116.061 E.26927
G1 X116.706 Y116.061 E.083
G1 X113.939 Y113.294 E.38665
G1 X113.939 Y112.454 E.083
G1 X117.546 Y116.061 E.50403
G1 X118.387 Y116.061 E.0831
G1 X113.939 Y111.613 E.62155
M73 Q17 S12
G1 X113.939 Y110.773 E.083
G1 X119.227 Y116.061 E.73893
G1 X120.067 Y116.061 E.083
G1 X113.939 Y109.933 E.85631
G1 X113.939 Y109.093 E.083
G1 X120.907 Y116.061 E.97369
G1 X121.748 Y116.061 E.0831
G1 X113.939 Y108.252 E1.09121
G1 X113.939 Y107.412 E.083
G1 X122.588 Y116.061 E1.20859
G1 X123.428 Y116.061 E.083
G1 X113.939 Y106.572 E1.32597
G1 X113.939 Y105.731 E.0831
G1 X124.269 Y116.061 E1.44348
G1 X125.109 Y116.061 E.083
G1 X113.939 Y104.891 E1.56086
G1 X113.939 Y104.051 E.083
G1 X125.949 Y116.061 E1.67824
G1 X126.789 Y116.061 E.083
G1 X113.939 Y103.211 E1.79562
G1 X113.939 Y102.37 E.0831
G1 X127.63 Y116.061 E1.91314
G1 X128.47 Y116.061 E.083
G1 X113.939 Y101.53 E2.03052
G1 X113.939 Y100.69 E.083
G1 X129.31 Y116.061 E2.1479
G1 X130.15 Y116.061 E.083
G1 X113.939 Y99.85 E2.26528
G1 X113.939 Y99.009 E.0831
G1 X130.991 Y116.061 E2.3828
G1 X131.831 Y116.061 E.083
M73 P18 R12
M73 Q18 S12
G1 X113.939 Y98.169 E2.50018
G1 X113.939 Y97.329 E.083
G1 X132.671 Y116.061 E2.61756
G1 X133.511 Y116.061 E.083
G1 X113.939 Y96.489 E2.73493
G1 X113.939 Y95.648 E.0831
G1 X134.352 Y116.061 E2.85245
G1 X135.192 Y116.061 E.083
G1 X113.939 Y94.808 E2.96983
G1 X113.939 Y93.968 E.083
G1 X136.032 Y116.061 E3.08721
G1 X136.061 Y115.249 E.08028
G1 X114.751 Y93.939 E2.9778
G1 X115.591 Y93.939 E.083
G1 X136.061 Y114.409 E2.86042
G1 X136.061 Y113.569 E.083
G1 X116.431 Y93.939 E2.74304
G1 X117.272 Y93.939 E.0831
G1 X136.061 Y112.728 E2.62552
G1 X136.061 Y111.888 E.083
G1 X118.112 Y93.939 E2.50814
G1 X118.952 Y93.939 E.083
G1 X136.061 Y111.048 E2.39076
G1 X136.061 Y110.207 E.0831
G1 X119.793 Y93.939 E2.27324
G1 X120.633 Y93.939 E.083
G1 X136.061 Y109.367 E2.15586
G1 X136.061 Y108.527 E.083
G1 X121.473 Y93.939 E2.03848
G1 X122.313 Y93.939 E.083
G1 X136.061 Y107.687 E1.92111
G1 X136.061 Y106.846 E.0831
G1 X123.154 Y93.939 E1.80359
G1 X123.994 Y93.939 E.083
G1 X136.061 Y106.006 E1.68621
G1 X136.061 Y105.166 E.083
G1 X124.834 Y93.939 E1.56883
G1 X125.674 Y93.939 E.083
M73 P19 R12
G1 X136.061 Y104.326 E1.45145
M73 Q19 S12
G1 X136.061 Y103.485 E.0831
G1 X126.515 Y93.939 E1.33393
G1 X127.355 Y93.939 E.083
G1 X136.061 Y102.645 E1.21655
G1 X136.061 Y101.805 E.083
G1 X128.195 Y93.939 E1.09917
G1 X129.035 Y93.939 E.083
G1 X136.061 Y100.965 E.98179
G1 X136.061 Y100.124 E.0831
G1 X129.876 Y93.939 E.86427
G1 X130.716 Y93.939 E.083
G1 X136.061 Y99.284 E.74689
