; generated by PrusaSlicer 2.7.4+MacOS-arm64 on 2024-06-13 at 20:42:26 UTC
;
;
; 
; external perimeters extrusion width = 0.68mm
; perimeters extrusion width = 0.68mm
; infill extrusion width = 0.68mm
; solid infill extrusion width = 0.68mm
; top infill extrusion width = 0.60mm
; first layer extrusion width = 0.65mm
M73 P0 R196
M73 Q0 S198
M201 X1000 Y1000 Z200 E5000 ; sets maximum accelerations, mm/sec^2
M203 X200 Y200 Z12 E120 ; sets maximum feedrates, mm / sec
M204 S1250 T1250 ; sets acceleration (S) and retract acceleration (R), mm/sec^2
M205 X8.00 Y8.00 Z0.40 E4.50 ; sets the jerk limits, mm/sec
M205 S0 T0 ; sets the minimum extruding and travel feed rate, mm/sec
@Object Sliced Faceplate v1.stl id:0 copy 0
@Objectstop Sliced Faceplate v1.stl id:0 copy 0
;TYPE:Custom
M862.3 P "MK3S" ; printer model check
M862.1 P0.6 ; nozzle diameter check
M115 U3.12.2 ; tell printer latest fw version
G90 ; use absolute coordinates
M83 ; extruder relative mode
M104 S185; set extruder temp
M109 S185; wait for extruder temp
G28 W ; home all without mesh bed level
G80 ; mesh bed leveling
G1 Z0.2 F720
G1 Y-3 F1000 ; go outside print area
G92 E0
M104 S215; set extruder temp
M140 S60; set bed temp
M190 S60; wait for bed temp
M109 S215; wait for extruder temp
G1 X20 E9 F750 ; intro line
G1 X180 E12.5 F750 ; intro line
G92 E0
M221 S95
G21 ; set units to millimeters
G90 ; use absolute coordinates
M83 ; use relative distances for extrusion
M900 K0.04 ; Filament gcode LA 1.5
M900 K18 ; Filament gcode LA 1.0
M107
;LAYER_CHANGE
M117 INDICATOR-Layer1
;Z:0.2
;HEIGHT:0.2
G1 E-.8 F2100
M73 Q0 S197
G1 Z.6 F720
G1 X21.844 Y39.888 F10800
G1 Z.2 F720
G1 E.8 F1500
M204 S800
;TYPE:Skirt/Brim
;WIDTH:0.65
G1 F600
G1 X23 Y39.618 E.05992
G1 X227 Y39.618 E10.29769
G1 X228.375 Y40.01 E.07217
G1 X229.337 Y41.069 E.07222
G1 X229.607 Y42.225 E.05992
G1 X229.607 Y166.982 E6.29759
M73 P0 R195
G1 X229.215 Y168.357 E.07217
G1 X228.156 Y169.318 E.07219
G1 X227 Y169.589 E.05994
G1 X23 Y169.589 E10.29769
G1 X21.625 Y169.196 E.07219
M73 Q0 S196
G1 X20.663 Y168.137 E.07222
G1 X20.393 Y166.982 E.05987
G1 X20.393 Y42.225 E6.29759
G1 X20.785 Y40.85 E.07217
G1 X21.778 Y39.949 E.06768
M204 S1000
;WIPE_START
G1 F8640
G1 X21.844 Y39.888 E-.02075
G1 X23 Y39.618 E-.27411
G1 X25.188 Y39.618 E-.50514
;WIPE_END
G1 Z.6 F720
@Object Sliced Faceplate v1.stl id:0 copy 0
G1 X194.823 Y65.207 F10800
G1 Z.2 F720
G1 E.8 F1500
M204 S800
;TYPE:Perimeter
;WIDTH:0.83798
G1 F600
G1 X195.048 Y65.072 E.01735
G1 X195.525 Y64.707 E.03971
G1 X195.841 Y64.414 E.02849
G1 X196.003 Y64.158 E.02003
;WIDTH:0.794015
G1 X196.165 Y63.903 E.01887
;WIDTH:0.75005
G1 X196.326 Y63.647 E.01778
;WIDTH:0.745773
G1 X196.271 Y63.816 E.01039
;WIDTH:0.791877
G1 X196.201 Y64.175 E.02278
;WIDTH:0.83798
G1 X196.132 Y64.534 E.02417
G1 X196.138 Y64.832 E.0197
G1 X196.259 Y65.544 E.04774
G1 X194.91 Y65.228 E.0916
M204 S1000
;WIPE_START
G1 F8640
G1 X194.823 Y65.207 E-.02067
G1 X195.048 Y65.072 E-.06059
G1 X195.525 Y64.707 E-.13869
G1 X195.841 Y64.414 E-.0995
G1 X196.003 Y64.158 E-.06995
G1 X196.165 Y63.903 E-.06976
G1 X196.326 Y63.647 E-.06983
G1 X196.271 Y63.816 E-.04104
G1 X196.201 Y64.175 E-.08446
G1 X196.132 Y64.534 E-.08441
G1 X196.137 Y64.798 E-.0611
;WIPE_END
G1 Z.6 F720
G1 X197.824 Y66.926 F10800
G1 Z.2 F720
G1 E.8 F1500
M204 S800
;TYPE:External perimeter
;WIDTH:0.98641
G1 F600
G1 X198.019 Y67.053 E.01826
;WIDTH:0.950388
G1 X198.215 Y67.18 E.01762
;WIDTH:0.914365
G1 X198.41 Y67.308 E.0169
;WIDTH:0.922508
G1 X198.899 Y67.549 E.03987
;WIDTH:0.926634
G1 X198.925 Y67.563 E.00217
M204 S1000
;WIPE_START
G1 F8640
G1 X198.899 Y67.549 E-.00682
G1 X198.41 Y67.308 E-.12588
G1 X198.215 Y67.18 E-.05386
G1 X198.019 Y67.053 E-.05393
G1 X197.824 Y66.926 E-.05373
;WIPE_END
G1 E-.50578 F2100
G1 Z.6 F720
G1 X181.712 Y74.19 F10800
G1 Z.2 F720
G1 E.8 F1500
M204 S800
;TYPE:Perimeter
;WIDTH:0.649999
G1 F600
G1 X181.819 Y73.605 E.03002
G1 X182.393 Y72.016 E.08528
G1 X183.181 Y70.554 E.08384
G1 X184.168 Y69.22 E.08377
G1 X185.335 Y68.04 E.08377
G1 X186.622 Y67.065 E.0815
G1 X188.106 Y66.236 E.08581
G1 X189.661 Y65.646 E.08395
G1 X191.281 Y65.284 E.08379
G1 X191.55 Y65.256 E.01365
G1 X191.009 Y64.998 E.03026
G1 X190.414 Y64.541 E.03787
G1 X189.789 Y63.778 E.04979
G1 X189.52 Y63.21 E.03172
G1 X189.322 Y62.649 E.03003
G1 X189.224 Y61.906 E.03783
G1 X189.256 Y61.423 E.02443
G1 X189.322 Y60.924 E.02541
G1 X189.383 Y60.695 E.01196
G1 X189.67 Y60.002 E.03786
G1 X189.789 Y59.796 E.01201
G1 X190.246 Y59.201 E.03787
G1 X190.414 Y59.033 E.01199
G1 X191.009 Y58.576 E.03787
G1 X191.215 Y58.457 E.01201
G1 X191.908 Y58.17 E.03786
G1 X192.137 Y58.109 E.01196
G1 X192.881 Y58.011 E.03788
G1 X193.119 Y58.011 E.01201
G1 X193.863 Y58.109 E.03788
G1 X194.092 Y58.17 E.01196
G1 X194.785 Y58.457 E.03786
G1 X194.991 Y58.576 E.01201
G1 X195.586 Y59.033 E.03787
G1 X195.754 Y59.201 E.01199
G1 X196.211 Y59.796 E.03787
G1 X196.33 Y60.002 E.01201
G1 X196.617 Y60.695 E.03786
G1 X196.678 Y60.924 E.01196
G1 X196.776 Y61.668 E.03788
;WIDTH:0.678507
G1 X196.695 Y62.629 E.05097
;WIDTH:0.69906
G1 X196.648 Y62.868 E.01329
G1 X197.232 Y62.094 E.0529
;WIDTH:0.649999
G1 X197.414 Y61.908 E.01314
G1 X198.009 Y61.452 E.03784
G1 X198.215 Y61.333 E.01201
G1 X198.908 Y61.046 E.03786
G1 X199.137 Y60.984 E.01198
G1 X199.881 Y60.886 E.03788
G1 X200.119 Y60.886 E.01201
G1 X200.863 Y60.984 E.03788
G1 X201.092 Y61.046 E.01198
G1 X201.785 Y61.333 E.03786
G1 X201.991 Y61.452 E.01201
G1 X202.586 Y61.908 E.03784
G1 X202.754 Y62.076 E.01199
G1 X203.211 Y62.671 E.03787
G1 X203.304 Y62.82 E.00887
G1 X203.617 Y63.57 E.04102
G1 X203.678 Y63.8 E.01201
G1 X203.776 Y64.544 E.03788
G1 X203.776 Y64.781 E.01196
G1 X203.678 Y65.525 E.03788
G1 X203.617 Y65.755 E.01201
G1 X203.33 Y66.448 E.03786
G1 X203.111 Y66.783 E.0202
G1 X202.754 Y67.249 E.02963
G1 X202.022 Y67.848 E.04775
G1 X201.753 Y68.003 E.01567
G1 X201.052 Y68.265 E.03778
G1 X200.878 Y68.305 E.00901
G1 X201.832 Y69.22 E.06673
G1 X202.749 Y70.444 E.0772
G1 X203.552 Y71.896 E.08376
G1 X204.141 Y73.448 E.0838
G1 X204.503 Y75.067 E.08374
G1 X204.63 Y76.722 E.08379
G1 X204.521 Y78.378 E.08377
G1 X204.178 Y80.001 E.08374
G1 X203.701 Y81.305 E.07009
G1 X204.205 Y80.957 E.03092
G1 X204.898 Y80.67 E.03786
G1 X205.872 Y80.511 E.04982
G1 X206.279 Y80.533 E.02057
G1 X206.853 Y80.609 E.02923
G1 X207.646 Y80.903 E.04269
G1 X207.981 Y81.076 E.01903
G1 X208.577 Y81.533 E.03791
G1 X208.745 Y81.701 E.01199
G1 X209.201 Y82.296 E.03784
G1 X209.32 Y82.502 E.01201
G1 X209.607 Y83.195 E.03786
G1 X209.669 Y83.424 E.01198
G1 X209.767 Y84.168 E.03788
G1 X209.767 Y84.406 E.01201
G1 X209.669 Y85.149 E.03783
G1 X209.607 Y85.379 E.01202
G1 X209.32 Y86.072 E.03786
G1 X209.201 Y86.278 E.01201
G1 X208.745 Y86.873 E.03784
G1 X208.577 Y87.041 E.01199
G1 X207.981 Y87.498 E.03791
G1 X207.776 Y87.617 E.01197
G1 X207.083 Y87.904 E.03786
G1 X206.853 Y87.965 E.01201
G1 X206.109 Y88.063 E.03788
G1 X205.872 Y88.063 E.01196
G1 X205.128 Y87.965 E.03788
G1 X204.898 Y87.904 E.01201
G1 X204.205 Y87.617 E.03786
;WIDTH:0.689199
G1 X203.41 Y87.071 E.05183
;WIDTH:0.706074
G1 X203.274 Y86.961 E.00965
G1 X203.441 Y87.379 E.02482
;WIDTH:0.678037
G1 X203.608 Y87.798 E.02382
;WIDTH:0.649999
G1 X203.678 Y88.049 E.01315
G1 X203.776 Y88.792 E.03783
G1 X203.776 Y89.03 E.01201
G1 X203.678 Y89.774 E.03788
G1 X203.617 Y90.003 E.01196
G1 X203.33 Y90.696 E.03786
G1 X203.211 Y90.902 E.01201
G1 X202.751 Y91.501 E.03812
G1 X202.586 Y91.665 E.01174
G1 X201.991 Y92.122 E.03787
G1 X201.785 Y92.241 E.01201
G1 X201.092 Y92.528 E.03786
G1 X200.863 Y92.589 E.01196
G1 X200.119 Y92.687 E.03788
G1 X199.881 Y92.687 E.01201
G1 X199.137 Y92.589 E.03788
G1 X198.908 Y92.528 E.01196
G1 X198.215 Y92.241 E.03786
G1 X198.009 Y92.122 E.01201
G1 X197.414 Y91.665 E.03787
G1 X197.184 Y91.417 E.01707
G1 X196.789 Y90.902 E.03276
G1 X196.641 Y90.626 E.01581
G1 X196.383 Y90.003 E.03404
G1 X196.267 Y89.353 E.03333
G1 X196.23 Y88.758 E.03009
G1 X196.395 Y87.88 E.0451
G1 X194.731 Y88.287 E.08647
G1 X193.065 Y88.417 E.08435
G1 X191.409 Y88.308 E.08377
G1 X189.661 Y87.928 E.0903
G1 X188.228 Y87.393 E.07721
G1 X186.767 Y86.606 E.08377
G1 X185.386 Y85.582 E.08678
G1 X184.253 Y84.452 E.08078
G1 X183.734 Y83.774 E.0431
M73 P0 R194
G1 X183.786 Y84.406 E.03201
G1 X183.688 Y85.149 E.03783
G1 X183.403 Y85.918 E.0414
G1 X183.22 Y86.278 E.02039
G1 X182.764 Y86.873 E.03784
G1 X182.596 Y87.041 E.01199
G1 X182.001 Y87.498 E.03787
G1 X181.795 Y87.617 E.01201
G1 X181.102 Y87.904 E.03786
G1 X180.872 Y87.965 E.01201
G1 X180.128 Y88.063 E.03788
G1 X179.891 Y88.063 E.01196
G1 X179.147 Y87.965 E.03788
G1 X178.917 Y87.904 E.01201
G1 X178.224 Y87.617 E.03786
G1 X178.019 Y87.498 E.01197
G1 X177.423 Y87.041 E.03791
G1 X177.255 Y86.873 E.01199
G1 X176.799 Y86.278 E.03784
G1 X176.68 Y86.072 E.01201
G1 X176.393 Y85.379 E.03786
G1 X176.331 Y85.149 E.01202
G1 X176.233 Y84.406 E.03783
G1 X176.233 Y84.168 E.01201
G1 X176.331 Y83.424 E.03788
G1 X176.393 Y83.195 E.01198
G1 X176.68 Y82.502 E.03786
G1 X176.799 Y82.296 E.01201
G1 X177.255 Y81.701 E.03784
G1 X177.423 Y81.533 E.01199
G1 X178.019 Y81.076 E.03791
;WIDTH:0.678506
G1 X178.891 Y80.666 E.05092
;WIDTH:0.69906
G1 X179.122 Y80.587 E.01332
G1 X178.16 Y80.468 E.05289
;WIDTH:0.649999
G1 X177.908 Y80.404 E.01312
G1 X177.215 Y80.117 E.03786
G1 X177.009 Y79.998 E.01201
G1 X176.414 Y79.541 E.03787
G1 X176.246 Y79.373 E.01199
G1 X175.789 Y78.778 E.03787
G1 X175.581 Y78.357 E.0237
G1 X175.383 Y77.879 E.02612
G1 X175.291 Y77.419 E.02368
G1 X175.224 Y76.906 E.02612
G1 X175.249 Y76.474 E.02184
G1 X175.322 Y75.924 E.02801
G1 X175.383 Y75.695 E.01196
G1 X175.67 Y75.002 E.03786
G1 X175.789 Y74.796 E.01201
G1 X176.246 Y74.201 E.03787
G1 X176.414 Y74.033 E.01199
G1 X177.009 Y73.576 E.03787
G1 X177.215 Y73.457 E.01201
G1 X177.908 Y73.17 E.03786
G1 X178.137 Y73.109 E.01196
G1 X178.881 Y73.011 E.03788
G1 X179.119 Y73.011 E.01201
G1 X179.863 Y73.109 E.03788
G1 X180.094 Y73.171 E.01207
G1 X180.786 Y73.459 E.03784
G1 X181.267 Y73.806 E.02994
G1 X181.644 Y74.131 E.02513
M204 S1000
;WIPE_START
G1 F8640
G1 X181.712 Y74.19 E-.02079
G1 X181.819 Y73.605 E-.13732
G1 X182.393 Y72.016 E-.39011
G1 X182.91 Y71.056 E-.25178
;WIPE_END
G1 Z.6 F720
G1 X196.169 Y61.711 F10800
G1 Z.2 F720
G1 E.8 F1500
M204 S800
;TYPE:External perimeter
G1 F600
G1 X196.171 Y61.722 E.00056
G1 X196.079 Y62.548 E.04195
G1 X195.777 Y63.319 E.0418
G1 X195.285 Y63.987 E.04188
G1 X194.621 Y64.516 E.04285
G1 X193.86 Y64.843 E.04181
;WIDTH:0.699521
G1 X193.453 Y64.927 E.02269
;WIDTH:0.749043
G1 X193.046 Y65.01 E.02439
G1 X192.631 Y64.937 E.02474
;WIDTH:0.699521
G1 X192.217 Y64.863 E.02296
;WIDTH:0.649999
G1 X192.14 Y64.843 E.00402
G1 X191.447 Y64.556 E.03786
G1 X190.783 Y64.059 E.04187
G1 X190.271 Y63.408 E.04181
G1 X189.944 Y62.647 E.04181
G1 X189.842 Y61.948 E.03566
G1 X189.826 Y61.747 E.01018
G1 X189.924 Y61.004 E.03783
G1 X190.231 Y60.234 E.04184
G1 X190.727 Y59.57 E.04184
G1 X191.379 Y59.058 E.04185
G1 X192.14 Y58.731 E.04181
G1 X192.96 Y58.613 E.04182
G1 X193.783 Y58.71 E.04183
G1 X194.553 Y59.018 E.04186
G1 X195.217 Y59.514 E.04184
G1 X195.702 Y60.13 E.03958
G1 X196.044 Y60.898 E.04244
G1 X196.156 Y61.622 E.03698
M204 S1000
;WIPE_START
G1 F8640
G1 X196.169 Y61.711 E-.02077
G1 X196.171 Y61.722 E-.00258
G1 X196.079 Y62.548 E-.19191
G1 X195.777 Y63.319 E-.1912
G1 X195.285 Y63.987 E-.19156
G1 X194.621 Y64.516 E-.19603
G1 X194.597 Y64.526 E-.00595
;WIPE_END
G1 Z.6 F720
G1 X181.668 Y79.541 F10800
G1 Z.2 F720
G1 E.8 F1500
M204 S800
;TYPE:Perimeter
;WIDTH:0.826508
G1 F600
G1 X181.778 Y80.154 E.04058
G1 X182.11 Y81.049 E.0622
G1 X181.829 Y80.876 E.0215
G1 X181.269 Y80.644 E.03949
G1 X180.863 Y80.518 E.0277
G1 X180.561 Y80.504 E.0197
;WIDTH:0.78637
G1 X180.259 Y80.49 E.01869
;WIDTH:0.746231
G1 X179.958 Y80.476 E.01762
;WIDTH:0.742326
G1 X180.131 Y80.437 E.01031
;WIDTH:0.784417
G1 X180.476 Y80.317 E.02252
;WIDTH:0.826508
G1 X180.82 Y80.196 E.02376
G1 X181.155 Y79.975 E.02615
G1 X181.6 Y79.599 E.03796
M204 S1000
;WIPE_START
G1 F8640
G1 X181.668 Y79.541 E-.02064
G1 X181.778 Y80.154 E-.1438
G1 X182.11 Y81.049 E-.22042
G1 X181.829 Y80.876 E-.07619
G1 X181.269 Y80.644 E-.13996
G1 X180.863 Y80.518 E-.09816
G1 X180.561 Y80.504 E-.06981
G1 X180.427 Y80.498 E-.03102
;WIPE_END
G1 Z.6 F720
G1 X179.937 Y81.117 F10800
G1 Z.2 F720
G1 E.8 F1500
M204 S800
;TYPE:External perimeter
;WIDTH:0.649999
G1 F600
G1 X179.948 Y81.115 E.00056
G1 X180.772 Y81.208 E.04186
G1 X181.562 Y81.518 E.04284
;WIDTH:0.690096
G1 X181.865 Y81.719 E.01957
;WIDTH:0.730192
G1 X182.168 Y81.919 E.02075
;WIDTH:0.774891
G1 X182.259 Y81.969 E.00632
;WIDTH:0.81959
G1 X182.349 Y82.019 E.00665
G1 X182.566 Y82.325 E.02423
;WIDTH:0.790523
G1 X182.783 Y82.631 E.02332
;WIDTH:0.784106
G1 X183.012 Y83.123 E.03345
G1 X183.04 Y83.25 E.00801
;WIDTH:0.745698
G1 X183.068 Y83.376 E.00754
;WIDTH:0.70729
G1 X183.095 Y83.502 E.00712
;WIDTH:0.668881
G1 X183.184 Y84.247 E.03905
;WIDTH:0.649999
G1 X183.086 Y85.07 E.04184
G1 X182.842 Y85.686 E.03345
G1 X182.739 Y85.908 E.01235
G1 X182.282 Y86.503 E.03787
G1 X181.631 Y87.016 E.04184
G1 X180.869 Y87.343 E.04186
G1 X180.049 Y87.461 E.04182
G1 X179.226 Y87.363 E.04184
G1 X178.457 Y87.056 E.0418
G1 X177.793 Y86.559 E.04187
G1 X177.28 Y85.908 E.04184
G1 X176.954 Y85.147 E.04179
G1 X176.833 Y84.287 E.04384
G1 X176.954 Y83.427 E.04384
G1 X177.241 Y82.734 E.03786
G1 X177.718 Y82.095 E.04025
G1 X178.368 Y81.573 E.04208
G1 X179.129 Y81.24 E.04193
G1 X179.848 Y81.131 E.03671
M204 S1000
;WIPE_START
G1 F8640
G1 X179.937 Y81.117 E-.0208
G1 X179.948 Y81.115 E-.00258
G1 X180.772 Y81.208 E-.19147
G1 X181.562 Y81.518 E-.19595
G1 X181.865 Y81.719 E-.08396
G1 X182.168 Y81.919 E-.08383
G1 X182.259 Y81.969 E-.02398
G1 X182.349 Y82.019 E-.02377
G1 X182.566 Y82.325 E-.08662
G1 X182.783 Y82.631 E-.08662
G1 X182.784 Y82.633 E-.00042
;WIPE_END
G1 Z.6 F720
G1 X197.816 Y86.653 F10800
G1 Z.2 F720
G1 E.8 F1500
M204 S800
;WIDTH:0.98789
G1 F600
G1 X198.014 Y86.524 E.01857
;WIDTH:0.951376
G1 X198.212 Y86.395 E.01785
;WIDTH:0.914861
G1 X198.41 Y86.266 E.01713
;WIDTH:0.922512
G1 X198.899 Y86.024 E.0399
;WIDTH:0.926642
G1 X198.925 Y86.011 E.00214
M204 S1000
;WIPE_START
G1 F8640
G1 X198.899 Y86.024 E-.00671
G1 X198.41 Y86.266 E-.12598
G1 X198.212 Y86.395 E-.05457
G1 X198.014 Y86.524 E-.05457
G1 X197.816 Y86.653 E-.05457
;WIPE_END
G1 E-.5036 F2100
G1 Z.6 F720
G1 X202.6 Y86.101 F10800
G1 Z.2 F720
G1 E.8 F1500
M204 S800
;TYPE:Perimeter
;WIDTH:0.795556
G1 F600
G1 X202.323 Y85.864 E.02281
;WIDTH:0.83507
G1 X202.045 Y85.627 E.02406
G1 X201.671 Y85.441 E.02751
G1 X201.085 Y85.219 E.04128
G1 X201.796 Y84.533 E.06508
G1 X202.128 Y84.113 E.03526
G1 X202.122 Y84.418 E.02009
G1 X202.201 Y85.018 E.03986
G1 X202.296 Y85.434 E.02811
G1 X202.448 Y85.767 E.02411
;WIDTH:0.795556
G1 X202.563 Y86.019 E.01734
M204 S1000
;WIPE_START
G1 F8640
G1 X202.6 Y86.101 E-.02077
G1 X202.323 Y85.864 E-.08418
G1 X202.045 Y85.627 E-.08435
G1 X201.671 Y85.441 E-.09645
G1 X201.085 Y85.219 E-.14469
G1 X201.796 Y84.533 E-.22813
G1 X202.128 Y84.113 E-.12362
G1 X202.127 Y84.19 E-.01781
;WIPE_END
G1 Z.6 F720
G1 X204.469 Y87.069 F10800
G1 Z.2 F720
G1 E.8 F1500
M204 S800
;TYPE:External perimeter
;WIDTH:0.649999
G1 F600
G1 X204.461 Y87.065 E.00045
G1 X203.792 Y86.573 E.04192
G1 X203.275 Y85.926 E.04181
G1 X202.942 Y85.166 E.04188
G1 X202.816 Y84.247 E.04682
;WIDTH:0.668879
G1 X202.905 Y83.502 E.03905
;WIDTH:0.707288
G1 X202.932 Y83.376 E.00712
;WIDTH:0.745696
G1 X202.96 Y83.25 E.00754
;WIDTH:0.784104
G1 X202.988 Y83.123 E.00801
G1 X203.217 Y82.631 E.03345
;WIDTH:0.790521
G1 X203.434 Y82.325 E.02332
;WIDTH:0.819587
G1 X203.651 Y82.019 E.02423
G1 X203.83 Y81.903 E.01377
;WIDTH:0.77719
G1 X204.01 Y81.788 E.01304
;WIDTH:0.734793
G1 X204.189 Y81.673 E.01224
;WIDTH:0.692396
G1 X204.369 Y81.558 E.01154
;WIDTH:0.649999
G1 X205.207 Y81.21 E.0458
G1 X205.951 Y81.113 E.03787
G1 X206.774 Y81.21 E.04183
G1 X207.572 Y81.532 E.04344
G1 X208.263 Y82.07 E.04421
G1 X208.72 Y82.665 E.03787
G1 X209.046 Y83.427 E.04184
G1 X209.165 Y84.247 E.04183
G1 X209.067 Y85.07 E.04184
G1 X208.759 Y85.84 E.04186
G1 X208.263 Y86.503 E.0418
G1 X207.612 Y87.016 E.04184
G1 X206.774 Y87.363 E.04578
